X:1
T:Brooklyn, HM
T:Brooklyn, HM
T:John Zundel, 1852
T:Public Domain Courtesy of the Cyber Hymnal™
C:John Zundel, 1852
Z:Public Domain
Z:Courtesy of the Cyber Hymnal™
%%score ( 1 2 ) ( 3 4 )
L:1/8
Q:1/4=115
M:4/4
K:Bb
V:1 treble 
V:2 treble 
V:3 bass 
V:4 bass 
V:1
 F2 | B3 B, D2 F2 | B6 F2 | [DB]3 [DF] [DB]2 [Fc]2 | [Bd]6 [Bd]2 | [Ac]3 [FA] [GB]2 [=EG]2 | %6
 ([FA]3 [GB] [Ac]2) [GB]2 | [FA]3 [FA] [GB]2 [=EG]2 | F6 F2 | B2 B2 B3 [Ac] | %10
 [Bd]2 [Bd]2 [Bd]3 [Be] | [Bf]2 [Bd]2 B2 [Bd]2 | [Ac]2 ([ce][Bd]) [Ac]2 [Fc]2 | %13
 [Ff]3 [Fd] [GB]2 [ce]2 | [Bd]4 [Ac]4 | [FB]6 |] %16
V:2
 F2 | B3 B, D2 F2 | B6 F2 | x8 | x8 | x8 | x8 | x8 | F6 F2 | B2 B2 B3 x | x8 | x4 B2 x2 | x8 | x8 | %14
 x8 | x6 |] %16
V:3
 F,2 | B,3 B,, D,2 F,2 | B,6 F,2 | [D,B,]3 [D,F,] [D,B,]2 [F,C]2 | [B,D]6 [B,,F]2 | %5
 [C,F]3 [C,C] [C,C]2 [C,C]2 | [F,C]6 [B,,D]2 | [C,C]3 [C,C] [C,C]2 [C,B,]2 | [F,A,]6 F,2 | %9
 B,2 B,2 B,3 [A,C] | [B,D]2 [B,D]2 [B,D]3 [B,C] | [B,D]2 [B,F]2 [B,D]2 [B,F]2 | %12
 [F,F]2 [F,F]2 [F,F]2 [E,A,]2 | [D,B,]3 [D,B,] [G,B,]2 [E,G]2 | [F,F]4 [F,E]4 | [B,,D]6 |] %16
V:4
 F,2 | B,3 B,, D,2 F,2 | B,6 F,2 | x8 | x8 | x8 | x8 | x8 | x6 F,2 | B,2 B,2 B,3 x | x8 | x8 | x8 | %13
 x8 | x8 | x6 |] %16

